X:699
T:Lady Montgomerie 
C:Joe Buchanan's Scottish Tome - Page 222.3
I:222 3
C:Lord Eglintoune 1796
R:Reel
Z:Carl Allison
L:1/8
M:4/4
K:Bbmaj
"Bb"B2 (BF) DEFD | "Gm"B2 cB "F7"ABcd | "Bb"B2 (BF) DEFD | "C7"CccB "F7"ABcd | 
"Bb"B2 (fB) dBfB | "Bb"B2 (fb) defg | "Bb"B2 (fB) "Gm"dBfB | "Cm"edcB "F7"ABcd | 
"Bb"B2 (fB) dBfB | "Bb"B2 (fb) defg | "Bb"B2 (fB) "Gm"dBfB |1 "Cm"BGFD "F7"Cccd :|
%%leftmargin 409 cm
|2  "Cm"BGFD "F7"C4 |]

